X: 1
T: SHERIFF MULDOON'S -- JIG
B: Ryan's Mammoth Collection of Fiddle Tunes
R: jig
M: 6/8
L: 1/8
Z: Contributed 20010525153752 by John Chambers jc:trillian.mit.edu
K: G
uG \
| GAG g^fg | ede d2B | GAG BAG | FAA ABA \
| GAG g^fg | agf e2d | DEF GAc | BGG G2 :|
|: ud \
| dBG dBG | ecA dBG | gag dBd | cAA ABc \
| dBg dBG | AEF GDB,| DEG ABc | BGG G2 :|
